static/icons/clock.svg

<svg xmlns="http://www.w3.org/2000/svg" width="24" height="24" viewBox="0 0 24 24">
  <path fill-rule="evenodd" d="M12.4230769,7.98076923 L12.4230769,12.1923077 L16.0192308,14.3269231 L15.4230769,15.3461538 L11.2115385,12.7884615 L11.2115385,7.98076923 L12.4230769,7.98076923 Z M12,18.4230769 C13.1538519,18.4230769 14.2307642,18.1282081 15.2307692,17.5384615 C16.2051331,16.9743562 16.9743562,16.2051331 17.5384615,15.2307692 C18.1282081,14.2307642 18.4230769,13.1538519 18.4230769,12 C18.4230769,10.8461481 18.1282081,9.76923577 17.5384615,8.76923077 C16.9743562,7.79486692 16.2051331,7.02564385 15.2307692,6.46153846 C14.2307642,5.87179192 13.1538519,5.57692308 12,5.57692308 C10.8461481,5.57692308 9.76923577,5.87179192 8.76923077,6.46153846 C7.79486692,7.02564385 7.02564385,7.79486692 6.46153846,8.76923077 C5.87179192,9.76923577 5.57692308,10.8461481 5.57692308,12 C5.57692308,13.1538519 5.87179192,14.2307642 6.46153846,15.2307692 C7.02564385,16.2051331 7.79486692,16.9743562 8.76923077,17.5384615 C9.76923577,18.1282081 10.8461481,18.4230769 12,18.4230769 Z M12,4 C13.4615458,4 14.8140963,4.36538096 16.0576923,5.09615385 C17.2628265,5.788465 18.211535,6.73717346 18.9038462,7.94230769 C19.634619,9.18590365 20,10.5384542 20,12 C20,13.4615458 19.634619,14.8140963 18.9038462,16.0576923 C18.211535,17.2628265 17.2628265,18.211535 16.0576923,18.9038462 C14.8140963,19.634619 13.4615458,20 12,20 C10.5384542,20 9.18590365,19.634619 7.94230769,18.9038462 C6.73717346,18.1987144 5.788465,17.2435958 5.09615385,16.0384615 C4.36538096,14.7948656 4,13.4487252 4,12 C4,10.5512748 4.36538096,9.20513442 5.09615385,7.96153846 C5.80128558,6.75640423 6.75640423,5.80128558 7.96153846,5.09615385 C9.20513442,4.36538096 10.5512748,4 12,4 Z"/>
</svg>

<svg xmlns="http://www.w3.org/2000/svg" width="24" height="24">
    <path fill-rule="evenodd" d="M12.423 7.98v4.212l3.596 2.135-.596 1.02-4.211-2.559V7.981h1.211zM12 18.424c1.154 0 2.23-.295 3.23-.885a6.228 6.228 0 0 0 2.308-2.307c.59-1 .885-2.077.885-3.231s-.295-2.23-.885-3.23a6.228 6.228 0 0 0-2.307-2.308c-1-.59-2.077-.885-3.231-.885s-2.23.295-3.23.885A6.228 6.228 0 0 0 6.462 8.77c-.59 1-.885 2.077-.885 3.231s.295 2.23.885 3.23a6.228 6.228 0 0 0 2.307 2.308c1 .59 2.077.885 3.231.885zM12 4c1.462 0 2.814.365 4.058 1.096a7.582 7.582 0 0 1 2.846 2.846A7.868 7.868 0 0 1 20 12a7.868 7.868 0 0 1-1.096 4.058 7.582 7.582 0 0 1-2.846 2.846A7.868 7.868 0 0 1 12 20a7.868 7.868 0 0 1-4.058-1.096 7.726 7.726 0 0 1-2.846-2.866A7.833 7.833 0 0 1 4 12c0-1.449.365-2.795 1.096-4.038a7.873 7.873 0 0 1 2.866-2.866A7.833 7.833 0 0 1 12 4z"/>
</svg>
